icons/svg/seamark_big/landmark_water_tower.svg

<?xml version="1.0" encoding="UTF-8" standalone="no"?>
<svg
   xmlns:dc="http://purl.org/dc/elements/1.1/"
   xmlns:cc="http://creativecommons.org/ns#"
   xmlns:rdf="http://www.w3.org/1999/02/22-rdf-syntax-ns#"
   xmlns:svg="http://www.w3.org/2000/svg"
   xmlns="http://www.w3.org/2000/svg"
   xmlns:sodipodi="http://sodipodi.sourceforge.net/DTD/sodipodi-0.dtd"
   xmlns:inkscape="http://www.inkscape.org/namespaces/inkscape"
   width="1060"
   height="1060"
   id="svg2"
   version="1.1"
   inkscape:version="0.48.4 r9939"
   sodipodi:docname="landmark_water_tower.svg">
  <defs
     id="defs13">
    <inkscape:path-effect
       effect="gears"
       id="path-effect3774"
       is_visible="true"
       teeth="6"
       phi="-1.2" />
    <inkscape:path-effect
       effect="bend_path"
       id="path-effect3772"
       is_visible="false"
       bendpath="m 95.790098,316.51174 c 144.429032,-206.42506 223.313032,-11.7428 339.548092,0"
       prop_scale="1.19"
       scale_y_rel="false"
       vertical="false"
       bendpath-nodetypes="cc" />
  </defs>
  <sodipodi:namedview
     pagecolor="#ffffff"
     bordercolor="#666666"
     borderopacity="1"
     objecttolerance="10"
     gridtolerance="10"
     guidetolerance="10"
     inkscape:pageopacity="0"
     inkscape:pageshadow="2"
     inkscape:window-width="1920"
     inkscape:window-height="1004"
     id="namedview11"
     showgrid="false"
     inkscape:zoom="0.8137931"
     inkscape:cx="577.68314"
     inkscape:cy="646.98718"
     inkscape:window-x="1680"
     inkscape:window-y="0"
     inkscape:window-maximized="1"
     inkscape:current-layer="svg2"
     inkscape:snap-object-midpoints="true"
     inkscape:snap-center="true" />
  <metadata
     id="metadata2975">image/svg+xmlen<rdf:RDF>
  <cc:Work
     rdf:about="">
    <dc:format>image/svg+xml</dc:format>
    <dc:type
       rdf:resource="http://purl.org/dc/dcmitype/StillImage" />
    <dc:title></dc:title>
  </cc:Work>
</rdf:RDF>
</metadata>
  <path
     sodipodi:type="inkscape:offset"
     inkscape:radius="32.02269"
     inkscape:original="M 607.96875 291.96875 A 8.2083956 8.2083956 0 0 0 599.71875 300.46875 L 599.71875 319.5 C 591.71806 322.191 582.82644 322.68248 574.84375 319.59375 C 564.67379 316.37224 553.65583 311.88907 543.03125 315.75 C 532.83946 318.61872 521.67955 323.20206 511.125 319.09375 C 504.32833 317.06009 497.75077 313.40355 490.4375 313.59375 C 477.23771 314.37755 465.79955 324.61718 452.1875 322 C 441.80317 320.08569 432.02868 312.33718 421.09375 315.8125 C 419.12838 316.27025 417.18927 316.83209 415.28125 317.46875 L 415.28125 300.46875 A 8.2083956 8.2083956 0 0 0 406.96875 292.15625 A 8.2083956 8.2083956 0 0 0 398.875 300.46875 L 398.875 451.21875 A 8.2083956 8.2083956 0 0 0 407.09375 459.4375 L 430.40625 459.4375 L 419.4375 724.0625 L 342.40625 724.0625 L 342.40625 747.09375 L 463.40625 747.09375 C 468.58547 767.80534 487.39337 783.25 509.65625 783.25 C 531.91913 783.25 550.75443 767.80534 555.9375 747.09375 L 676.875 747.09375 L 676.875 724.0625 L 597.8125 724.0625 L 586 459.4375 L 607.9375 459.4375 A 8.2083956 8.2083956 0 0 0 616.125 451.21875 L 616.125 300.46875 A 8.2083956 8.2083956 0 0 0 607.96875 291.96875 z M 415.28125 441.59375 C 415.8985 442.10877 416.55561 442.58601 417.25 443 L 415.28125 443 L 415.28125 441.59375 z M 599.71875 441.625 L 599.71875 443 L 597.75 443 C 598.43538 442.59207 599.10833 442.13138 599.71875 441.625 z M 452.28125 459.4375 L 564.15625 459.4375 L 565.03125 479.375 L 507.4375 523.96875 L 451.40625 480.59375 L 452.28125 459.4375 z M 565.625 492.71875 L 569.15625 571.78125 L 516.34375 530.875 L 565.625 492.71875 z M 450.84375 494 L 498.5 530.875 L 447.6875 570.21875 L 450.84375 494 z M 507.4375 537.78125 L 567.6875 584.4375 L 507.21875 636.96875 L 447.09375 584.71875 L 447.09375 584.46875 L 507.4375 537.78125 z M 570.25 596.6875 L 574.6875 695.5625 L 515.5625 644.1875 L 570.25 596.6875 z M 446.5 598.6875 L 498.875 644.1875 L 442.59375 693.09375 L 446.5 598.6875 z M 507.21875 651.4375 L 575.34375 710.625 L 575.9375 724.0625 L 555.9375 724.0625 C 550.74559 703.36341 531.91023 687.90625 509.65625 687.90625 C 487.40227 687.90625 468.5943 703.36341 463.40625 724.0625 L 441.3125 724.0625 L 441.96875 708.09375 L 507.21875 651.4375 z M 509.65625 705.0625 C 526.6108 705.0625 540.1875 718.6392 540.1875 735.59375 C 540.1875 752.5483 526.6108 766.09375 509.65625 766.09375 C 492.7017 766.09375 479.15625 752.5483 479.15625 735.59375 C 479.15625 718.6392 492.7017 705.0625 509.65625 705.0625 z "
     style="opacity:0.372;color:#000000;fill:#e4e4e4;fill-opacity:1;fill-rule:nonzero;stroke:#a35151;stroke-width:0;stroke-linecap:round;stroke-linejoin:miter;stroke-miterlimit:4;stroke-opacity:1;stroke-dasharray:none;stroke-dashoffset:0;marker:none;visibility:visible;display:inline;overflow:visible;enable-background:accumulate"
     id="path4245"
     d="m 608.15625,259.9375 c 3.19909,0.0182 -18.76245,4.39413 -15.8125,3.15625 2.94995,-1.23788 -15.50937,11.35814 -13.28125,9.0625 1.72973,-1.78214 -4.99941,8.90426 -7.625,12.5 -9.44151,-2.68905 -22.19991,-4.4291 -37.0625,0.34375 l -0.0312,-0.0625 c -12.8861,3.6271 -15.65234,2.73271 -11.59375,4.3125 a 32.025892,32.025892 0 0 0 -2.4375,-0.84375 c -2.13332,-0.63832 -12.24349,-7.293 -30.71875,-6.8125 a 32.025892,32.025892 0 0 0 -1.0625,0.0312 c -14.29039,0.84856 -23.35523,5.6085 -28.3125,7.46875 -2.10684,0.79061 -2.79042,0.94499 -3.1875,1.0625 -0.15652,-0.14885 -2.9419,-1.24023 -9.84375,-3.59375 -0.80606,-0.27486 -1.93933,-0.53085 -2.875,-0.8125 0.0323,-0.0571 -0.0645,-0.76675 0.0312,-0.53125 1.19362,2.93448 -11.05258,-15.55258 -8.8125,-13.3125 2.24008,2.24008 -16.24698,-10.00612 -13.3125,-8.8125 2.93448,1.19362 -18.82394,-2.92831 -15.65625,-2.96875 a 32.025892,32.025892 0 0 0 -0.0312,0 c 3.11479,-0.0433 -18.20523,4.5124 -15.34375,3.28125 2.86148,-1.23115 -15.11064,11.13812 -12.9375,8.90625 2.17314,-2.23187 -9.68567,16.04953 -8.53125,13.15625 1.07714,-2.69961 -2.22784,15.04447 -2.71875,15 l -0.15625,0 0,0.40625 0,150.3125 0,0.0312 c 0.0406,-2.89584 4.25031,18.24776 3.0625,15.375 -1.19303,-2.88538 10.92655,15.30155 8.71875,13.09375 -2.2078,-2.2078 15.97913,9.91178 13.09375,8.71875 -1.16433,-0.48142 1.86267,0.003 5.40625,0.65625 l -8.40625,202.96875 -46.3125,0 A 32.025892,32.025892 0 0 0 310.375,724.0625 l 0,23.03125 a 32.025892,32.025892 0 0 0 32.03125,32.03125 l 100.59375,0 c 14.29563,21.78706 38.92236,36.15625 66.65625,36.15625 27.74952,0 52.41669,-14.34713 66.71875,-36.15625 l 100.5,0 a 32.025892,32.025892 0 0 0 32.03125,-32.03125 l 0,-23.03125 A 32.025892,32.025892 0 0 0 676.875,692.03125 l -48.4375,0 -9.0625,-203.25 c 2.81354,-0.50103 5.03088,-0.82292 4.03125,-0.40625 -2.87499,1.19836 15.19826,-10.95665 13,-8.75 -2.19826,2.20665 9.90615,-15.94203 8.71875,-13.0625 -1.18221,2.86694 2.9908,-18.23256 3.03125,-15.34375 1.8e-4,0.0127 -2e-5,-0.0449 0,-0.0312 l 0,-150.71875 -0.5,0 c -0.9222,-3.56855 -3.08026,-17.04597 -2.15625,-14.625 1.13268,2.96767 -10.76179,-15.82323 -8.5625,-13.53125 2.19929,2.29198 -16.04341,-10.3479 -13.125,-9.09375 2.91841,1.25415 -18.83268,-3.29942 -15.65625,-3.28125 z M 507.4375,578.25 l 9.78125,7.59375 -10,8.71875 -9.8125,-8.53125 10.03125,-7.78125 z m 2.21875,155.8125 c 0.10131,0 1.53125,1.42994 1.53125,1.53125 0,0.10131 -1.39059,1.5 -1.53125,1.5 -0.14066,0 -1.5,-1.35934 -1.5,-1.5 0,-0.14066 1.39869,-1.53125 1.5,-1.53125 z" />
  <path
     sodipodi:type="arc"
     style="color:#000000;fill:none;stroke:#000000;stroke-width:30.33652288;stroke-linecap:butt;stroke-linejoin:miter;stroke-miterlimit:4;stroke-opacity:1;stroke-dasharray:none;stroke-dashoffset:0;marker:none;visibility:visible;display:inline;overflow:visible;enable-background:accumulate"
     id="path2985"
     sodipodi:cx="510.26483"
     sodipodi:cy="737.74365"
     sodipodi:rx="69.120766"
     sodipodi:ry="69.120766"
     d="m 579.3856,737.74365 a 69.120766,69.120766 0 1 1 -138.24153,0 69.120766,69.120766 0 1 1 138.24153,0 z"
     transform="matrix(0.56558888,0,0,0.56558888,221.05031,318.17685)" />
  <path
     style="font-size:medium;font-style:normal;font-variant:normal;font-weight:normal;font-stretch:normal;text-indent:0;text-align:start;text-decoration:none;line-height:normal;letter-spacing:normal;word-spacing:normal;text-transform:none;direction:ltr;block-progression:tb;writing-mode:lr-tb;text-anchor:start;baseline-shift:baseline;color:#000000;fill:#000000;fill-opacity:1;stroke:none;stroke-width:30.00000191;marker:none;visibility:visible;display:inline;overflow:visible;enable-background:accumulate;font-family:Sans;-inkscape-font-specification:Sans"
     d="m 342.41131,723.91311 0,23.04878 135.30972,0 0,-23.04878 z m 199.14891,0 0,23.04878 135.30972,0 0,-23.04878 z"
     id="path3754"
     inkscape:connector-curvature="0"
     sodipodi:nodetypes="cccccccccc" />
  <rect
     style="fill:none"
     y="209.23727"
     x="249.02544"
     width="487.45749"
     height="487.45749"
     id="rect3" />
  <rect
     style="fill:none"
     y="209.23727"
     x="249.02544"
     width="487.45749"
     height="487.45749"
     id="rect3-8" />
  <rect
     style="fill:none"
     y="286.47861"
     x="-412.29581"
     width="487.45749"
     height="487.45749"
     id="rect3-5" />
  <rect
     style="fill:none"
     y="286.47861"
     x="-412.29581"
     width="487.45749"
     height="487.45749"
     id="rect3-8-8" />
  <path
     inkscape:connector-curvature="0"
     style="fill:none;stroke:#000000;stroke-width:16.41514969;stroke-linecap:round;stroke-linejoin:round;stroke-miterlimit:4;stroke-opacity:1;stroke-dasharray:none;stroke-dashoffset:0"
     d="m 607.92311,300.33768 0,150.73462 -200.84622,0 0,-150.73463"
     id="rect9358" />
  <path
     inkscape:connector-curvature="0"
     style="fill:none;stroke:#000000;stroke-width:10.92315388;stroke-linecap:round;stroke-linejoin:miter;stroke-miterlimit:4;stroke-opacity:1;stroke-dasharray:none"
     d="M 577.90821,582.6311 435.37301,706.44649"
     id="path9895" />
  <path
     inkscape:connector-curvature="0"
     style="fill:none;stroke:#000000;stroke-width:21.84630775;stroke-linecap:round;stroke-linejoin:round;stroke-miterlimit:4;stroke-opacity:1;stroke-dasharray:none"
     sodipodi:nodetypes="cz"
     id="path9928"
     d="m 574.93134,456.22814 12.11211,271.85344" />
  <path
     inkscape:connector-curvature="0"
     d="m 441.48683,455.45246 -11.2954,272.62912"
     id="path5516"
     sodipodi:nodetypes="cz"
     style="fill:none;stroke:#000000;stroke-width:21.84630775;stroke-linecap:round;stroke-linejoin:round;stroke-miterlimit:4;stroke-opacity:1;stroke-dasharray:none" />
  <path
     inkscape:connector-curvature="0"
     id="path5518"
     d="M 436.50134,582.6311 579.03656,706.44649"
     style="fill:none;stroke:#000000;stroke-width:10.92315388;stroke-linecap:round;stroke-linejoin:miter;stroke-miterlimit:4;stroke-opacity:1;stroke-dasharray:none" />
  <path
     inkscape:connector-curvature="0"
     id="path5520"
     d="M 575.04127,478.37424 438.65062,583.9768"
     style="fill:none;stroke:#000000;stroke-width:10.92315388;stroke-linecap:round;stroke-linejoin:miter;stroke-miterlimit:4;stroke-opacity:1;stroke-dasharray:none" />
  <path
     inkscape:connector-curvature="0"
     style="fill:none;stroke:#000000;stroke-width:10.92315388;stroke-linecap:round;stroke-linejoin:miter;stroke-miterlimit:4;stroke-opacity:1;stroke-dasharray:none"
     d="M 439.77896,478.37424 576.16962,583.9768"
     id="path5522" />
  <path
     inkscape:connector-curvature="0"
     style="fill:#000000;fill-opacity:1;fill-rule:evenodd;stroke:none"
     d="m 490.42746,313.45077 c -13.19979,0.7838 -24.6283,11.02925 -38.24035,8.41207 -10.38433,-1.91431 -20.18274,-9.68179 -31.11767,-6.20647 -4.18842,0.97551 -8.19837,2.51241 -12.23549,3.94958 0.13361,5.40426 -0.2644,11.5446 0.19393,16.49929 9.34796,-3.66458 20.36273,-6.56819 29.95406,-2.00044 8.01869,3.13235 16.86391,7.17134 25.52882,3.79569 10.98402,-3.42007 22.69615,-10.33757 34.60849,-6.37744 9.4879,2.76392 19.45375,8.40636 29.54448,4.84222 11.02936,-3.04509 22.86842,-7.80414 34.38336,-3.88475 10.63516,2.85845 21.86632,8.68505 32.9336,4.59929 1.92241,-1.0762 6.03845,-0.80143 6.2059,-3.18019 0,-5.1521 0,-10.30421 0,-15.45632 -8.60657,3.46343 -18.53112,4.40185 -27.34475,0.99166 -10.16996,-3.22151 -21.19423,-7.69438 -31.81881,-3.83345 -10.19179,2.86872 -21.34292,7.44593 -31.89747,3.33762 -6.79667,-2.03366 -13.38483,-5.67856 -20.6981,-5.48836 z"
     id="path121" />
</svg>

<svg width="1060" height="1060" viewBox="0 0 1060 1060" fill="none" xmlns="http://www.w3.org/2000/svg">
<g clip-path="url(#clip0)">
<path opacity="0.372" d="M608.156 259.938C611.355 259.956 589.394 264.332 592.344 263.094C595.294 261.856 576.834 274.452 579.062 272.156C580.792 270.374 574.063 281.061 571.438 284.656C561.996 281.967 549.238 280.227 534.375 285L534.344 284.938C521.458 288.565 518.691 287.67 522.75 289.25C521.949 288.936 521.136 288.655 520.313 288.406C518.179 287.768 508.069 281.113 489.594 281.594C489.239 281.598 488.885 281.609 488.531 281.625C474.241 282.473 465.176 287.233 460.219 289.094C458.112 289.884 457.428 290.039 457.031 290.156C456.875 290.007 454.089 288.916 447.188 286.562C446.382 286.288 445.248 286.032 444.313 285.75C444.345 285.693 444.248 284.983 444.344 285.219C445.537 288.153 433.291 269.666 435.531 271.906C437.771 274.146 419.284 261.9 422.219 263.094C425.153 264.287 403.395 260.165 406.562 260.125C406.552 260.125 406.542 260.125 406.531 260.125C409.646 260.082 388.326 264.637 391.188 263.406C394.049 262.175 376.077 274.544 378.25 272.312C380.423 270.081 368.564 288.362 369.719 285.469C370.796 282.769 367.491 300.513 367 300.469H366.844V300.875V451.187V451.219C366.884 448.323 371.094 469.466 369.906 466.594C368.713 463.708 380.833 481.895 378.625 479.687C376.417 477.48 394.604 489.599 391.719 488.406C390.554 487.925 393.581 488.409 397.125 489.062L388.719 692.031H342.406C338.2 692.03 334.034 692.858 330.148 694.468C326.261 696.077 322.73 698.437 319.755 701.411C316.781 704.386 314.421 707.917 312.812 711.804C311.202 715.69 310.374 719.856 310.375 724.062V747.094C310.374 751.3 311.202 755.466 312.812 759.352C314.421 763.239 316.781 766.77 319.755 769.745C322.73 772.719 326.261 775.079 330.148 776.688C334.034 778.298 338.2 779.126 342.406 779.125H443C457.296 800.912 481.922 815.281 509.656 815.281C537.406 815.281 562.073 800.934 576.375 779.125H676.875C681.082 779.126 685.247 778.298 689.134 776.688C693.02 775.079 696.552 772.719 699.526 769.745C702.501 766.77 704.86 763.239 706.469 759.352C708.079 755.466 708.907 751.3 708.906 747.094V724.062C708.907 719.856 708.079 715.69 706.469 711.804C704.86 707.917 702.501 704.386 699.526 701.411C696.552 698.437 693.02 696.078 689.134 694.468C685.247 692.859 681.082 692.031 676.875 692.031H628.438L619.375 488.781C622.189 488.28 624.406 487.958 623.406 488.375C620.531 489.573 638.605 477.418 636.406 479.625C634.208 481.832 646.312 463.683 645.125 466.562C643.943 469.429 648.116 448.33 648.156 451.219C648.156 451.231 648.156 451.174 648.156 451.188V300.469H647.656C646.734 296.9 644.576 283.423 645.5 285.844C646.633 288.811 634.738 270.021 636.938 272.313C639.137 274.605 620.894 261.965 623.812 263.219C626.731 264.473 604.98 259.919 608.156 259.938V259.938ZM507.438 578.25L517.219 585.844L507.219 594.562L497.406 586.031L507.438 578.25ZM509.656 734.062C509.758 734.062 511.188 735.492 511.188 735.594C511.188 735.695 509.797 737.094 509.656 737.094C509.516 737.094 508.156 735.734 508.156 735.594C508.156 735.453 509.555 734.062 509.656 734.062Z" fill="#E4E4E4"/>
<path d="M548.744 735.437C548.745 740.571 547.735 745.655 545.77 750.399C543.806 755.143 540.927 759.453 537.296 763.084C533.666 766.715 529.356 769.596 524.612 771.561C519.869 773.526 514.785 774.537 509.65 774.537C504.516 774.537 499.432 773.526 494.688 771.561C489.945 769.596 485.635 766.715 482.004 763.084C478.374 759.453 475.495 755.143 473.53 750.399C471.566 745.655 470.556 740.571 470.556 735.437C470.556 730.302 471.566 725.218 473.53 720.474C475.495 715.73 478.374 711.42 482.004 707.789C485.635 704.158 489.945 701.277 494.688 699.312C499.432 697.347 504.516 696.336 509.65 696.336C514.785 696.336 519.869 697.347 524.612 699.312C529.356 701.277 533.666 704.158 537.296 707.789C540.927 711.42 543.806 715.73 545.77 720.474C547.735 725.218 548.745 730.302 548.744 735.437Z" stroke="black" stroke-width="17.158"/>
<path d="M342.411 723.913V746.962H477.721V723.913H342.411ZM541.56 723.913V746.962H676.87V723.913H541.56Z" fill="black"/>
<path d="M607.923 300.338V451.072H407.077V300.338" stroke="black" stroke-width="16.4151" stroke-linecap="round" stroke-linejoin="round"/>
<path d="M577.908 582.631L435.373 706.446" stroke="black" stroke-width="10.9232" stroke-linecap="round"/>
<path d="M574.931 456.228L587.044 728.081" stroke="black" stroke-width="21.8463" stroke-linecap="round" stroke-linejoin="round"/>
<path d="M441.487 455.452L430.191 728.082" stroke="black" stroke-width="21.8463" stroke-linecap="round" stroke-linejoin="round"/>
<path d="M436.501 582.631L579.037 706.446" stroke="black" stroke-width="10.9232" stroke-linecap="round"/>
<path d="M575.041 478.374L438.651 583.977" stroke="black" stroke-width="10.9232" stroke-linecap="round"/>
<path d="M439.779 478.374L576.17 583.977" stroke="black" stroke-width="10.9232" stroke-linecap="round"/>
<path fill-rule="evenodd" clip-rule="evenodd" d="M490.427 313.451C477.228 314.235 465.799 324.48 452.187 321.863C441.803 319.949 432.004 312.181 421.069 315.656C416.881 316.632 412.871 318.169 408.834 319.606C408.968 325.01 408.57 331.151 409.028 336.105C418.376 332.441 429.391 329.537 438.982 334.105C447.001 337.237 455.846 341.276 464.511 337.9C475.495 334.48 487.207 327.563 499.119 331.523C508.607 334.287 518.573 339.929 528.664 336.365C539.693 333.32 551.532 328.561 563.047 332.481C573.682 335.339 584.913 341.166 595.981 337.08C597.903 336.004 602.019 336.278 602.187 333.9C602.187 328.748 602.187 323.595 602.187 318.443C593.58 321.907 583.655 322.845 574.842 319.435C564.672 316.213 553.648 311.741 543.023 315.601C532.831 318.47 521.68 323.047 511.126 318.939C504.329 316.905 497.741 313.261 490.427 313.451V313.451Z" fill="black"/>
</g>
<defs>
<clipPath id="clip0">
<path d="M0 0H1060V1060H0V0Z" fill="white"/>
</clipPath>
</defs>
</svg>
